icons/rdt_result_no_test_fill.svg

<svg width="48" height="48" viewBox="0 0 48 48" fill="none" xmlns="http://www.w3.org/2000/svg">
<path fill-rule="evenodd" clip-rule="evenodd" d="M40 24.0005C40 27.3142 37.3137 30.0005 34 30.0005H32.566L27.7629 24.9453C27.9142 24.6638 28 24.3419 28 24C28 22.8954 27.1046 22 26 22H24.9645L21.1644 18.0005H34C37.3137 18.0005 40 20.6868 40 24.0005ZM36 23.9995C36 23.1711 35.3284 22.4995 34.5 22.4995C33.6716 22.4995 33 23.1711 33 23.9995C33 24.8279 33.6716 25.4995 34.5 25.4995C35.3284 25.4995 36 24.8279 36 23.9995ZM30.752 23.25C31.1673 23.25 31.504 23.5858 31.504 24C31.504 24.4142 31.1673 24.75 30.752 24.75C30.3367 24.75 30 24.4142 30 24C30 23.5858 30.3367 23.25 30.752 23.25Z" fill="black"/>
<path d="M12 24C12 22.8954 12.8954 22 14 22H16.6881L12.9715 18.0883C10.1478 18.5761 8 21.0375 8 24.0005C8 27.3142 10.6863 30.0005 14 30.0005H24.2896L20.4886 26H14C12.8954 26 12 25.1046 12 24Z" fill="black"/>
<path fill-rule="evenodd" clip-rule="evenodd" d="M44 24C44 35.0457 35.0457 44 24 44C12.9543 44 4 35.0457 4 24C4 12.9543 12.9543 4 24 4C35.0457 4 44 12.9543 44 24ZM42 24C42 29.1085 39.8719 33.7199 36.4539 36.9962L11.6573 10.8981C14.8798 7.86121 19.2226 6 24 6C33.9411 6 42 14.0589 42 24ZM24 42C28.1125 42 31.9028 40.6209 34.9338 38.2999L10.2781 12.35C7.60984 15.4897 6 19.5569 6 24C6 33.9411 14.0589 42 24 42Z" fill="black"/>
</svg>

<svg
  xmlns="http://www.w3.org/2000/svg"
  width="24"
  height="24"
  viewBox="0 0 24 24"
  fill="none"
  stroke="currentColor"
  stroke-width="2"
  stroke-linecap="round"
  stroke-linejoin="round"
>
  <path
    fill-rule="evenodd"
    d="M40 24a6 6 0 0 1-6 6h-1.434l-4.803-5.055A2 2 0 0 0 26 22h-1.035l-3.8-4H34a6 6 0 0 1 6 6m-4 0a1.5 1.5 0 1 0-3 0 1.5 1.5 0 0 0 3 0m-5.248-.75a.751.751 0 1 1 .002 1.502.751.751 0 0 1-.002-1.502"
    clip-rule="evenodd"
  />
  <path d="M12 24a2 2 0 0 1 2-2h2.688l-3.716-3.912A6.002 6.002 0 0 0 14 30h10.29l-3.801-4H14a2 2 0 0 1-2-2" />
  <path
    fill-rule="evenodd"
    d="M44 24c0 11.046-8.954 20-20 20S4 35.046 4 24 12.954 4 24 4s20 8.954 20 20m-2 0c0 5.108-2.128 9.72-5.546 12.996L11.657 10.898A17.94 17.94 0 0 1 24 6c9.941 0 18 8.059 18 18M24 42c4.113 0 7.903-1.38 10.934-3.7L10.278 12.35A17.93 17.93 0 0 0 6 24c0 9.941 8.059 18 18 18"
    clip-rule="evenodd"
  />
</svg>
